X:5715
T:Gan Ainm
R:reel
S:Jacky Daly & Seamus Creagh
H:
N:
D:
Z:Adrian Scahill
M:4/4
L:1/8
K:D
G2BG FGA=c|B2BA BGEF|G2BG FABc|dBAG FDEF|\
GB,EG FA,DF|EBBA BGEF|G2BG FABc|dBAd BEE2:||\
(3gag fg edBA|G2BG Bdef|(3gag fg edBc|dBAG FDD2|\
(3gag fg edBA|G2BG Bdef|gfed efge|dBAF DFAF:||


